wp-content/themes/engage/assets/img/bookmark-regular.svg

<?xml version="1.0" encoding="UTF-8"?><svg version="1.1" width="12px" height="15px" viewBox="0 0 12.0 15.0" xmlns="http://www.w3.org/2000/svg" xmlns:xlink="http://www.w3.org/1999/xlink"><defs><clipPath id="i0"><path d="M9.84478851,0 C10.6212376,0 11.2511869,0.629656265 11.2511869,1.40639836 L11.2511869,14.0610536 C11.2511869,14.7847628 10.4659478,15.2096123 9.84185852,14.8706117 L5.62559344,12.4114655 L1.40991436,14.8709046 C0.784946084,15.2353962 0,14.7847628 0,14.0610536 L0,1.40639836 C0,0.629656265 0.629656265,0 1.40639836,0 Z M9.64261875,1.40639836 L1.55582818,1.40639836 C1.48345727,1.40639836 1.40639836,1.48345727 1.40639836,1.58219815 L1.40639836,13.2435845 L5.62559344,10.7823874 L9.84478851,13.2435845 L9.84478851,1.58219815 C9.84478851,1.48345727 9.7686086,1.40639836 9.64261875,1.40639836 Z"></path></clipPath></defs><g clip-path="url(#i0)"><polygon points="0,0 11.2511869,0 11.2511869,15 0,15 0,0" stroke="none" fill="#000000"></polygon></g></svg>

<svg xmlns="http://www.w3.org/2000/svg" width="12" height="15"><defs><clipPath id="a"><path d="M9.845 0c.776 0 1.406.63 1.406 1.406v12.655c0 .724-.785 1.149-1.41.81l-4.215-2.46-4.216 2.46A.938.938 0 0 1 0 14.06V1.406C0 .63.63 0 1.406 0Zm-.202 1.406H1.556c-.073 0-.15.077-.15.176v11.662l4.22-2.462 4.219 2.462V1.582c0-.099-.076-.176-.202-.176Z"/></clipPath></defs><g clip-path="url(#a)"><path d="M0 0h11.251v15H0V0z"/></g></svg>
